X:5908
T:Sean Coghlan's Kesh Jig
O:england
R:Jig
S:Seamus Begley
D:Meitheal
M:6/8
L:1/8
K:A
(3EFG|~A3 ABc|BcA Bce|fea fec|BAB BAF|
~A3 ABc|BcA Bce|fea fec|BAA A2:|
B|cAA cAA|fec eAA|cAA cAA|fec BAB|
cAA cAA|faf ecB|ABc BAB|cAA A2:|


